src/assets/IconDAI.svg

<svg width="21" height="21" viewBox="0 0 21 21" fill="none" xmlns="http://www.w3.org/2000/svg">
<circle cx="10.2791" cy="10.5" r="9.5" fill="white" stroke="#FFCE45"/>
<path d="M10.2792 3.76395L16.8721 10.3568L10.2792 16.9498L3.68628 10.3568L10.2792 3.76395Z" fill="#FFCE45"/>
<path d="M10.279 12.5082L3.68066 10.3566L10.279 3.76376L16.8774 10.3566L10.279 12.5082Z" fill="#FEBE44"/>
<path d="M5.97583 9.92621H8.98813L10.2791 8.49179L11.7135 9.92621H14.7258L10.2791 5.12103L5.97583 9.92621Z" fill="white"/>
<path opacity="0.42" d="M10.2791 16.9493V3.76376L16.8718 10.3566L10.2791 16.9493Z" fill="#D9A547"/>
</svg>

<svg width="21" height="21" fill="none" xmlns="http://www.w3.org/2000/svg"><circle cx="10.279" cy="10.5" r="9.5" fill="#fff" stroke="#FFCE45"/><path d="M10.28 3.764l6.592 6.593-6.593 6.593-6.593-6.593 6.593-6.593z" fill="#FFCE45"/><path d="M10.279 12.508l-6.598-2.151 6.598-6.593 6.598 6.593-6.598 2.151z" fill="#FEBE44"/><path d="M5.976 9.926h3.012l1.291-1.434 1.434 1.434h3.013l-4.447-4.805-4.303 4.805z" fill="#fff"/><path opacity=".42" d="M10.28 16.95V3.763l6.592 6.593-6.593 6.592z" fill="#D9A547"/></svg>
